X: 31830
T: Paudeen O'Rafferty
R: jig
M: 6/8
K: Gmajor
|:D|GAB D3|GAB AGe|dAB D3|GAG Ged|
GAB D3|GAB d2e|dcB AGA|BGG G2:|
|:B|dBB dBB|dBA G2B|dBB dBB|GAG GED|
dBB dBB|dBd G2e|dBB AGA|BGG G2:|

